src/next/cmd/32/insertannotation.svg

<svg height="32" viewBox="0 0 32 32" width="32" xmlns="http://www.w3.org/2000/svg" xmlns:xlink="http://www.w3.org/1999/xlink"><linearGradient id="a" gradientTransform="scale(1.0975951 .9110828)" gradientUnits="userSpaceOnUse" x1="26.091133" x2="31.500689" xlink:href="#l" y1="14.856744" y2="14.856744"/><linearGradient id="b" gradientUnits="userSpaceOnUse" spreadMethod="reflect" x1="88.606247" x2="91.575104" y1="13.510336" y2="13.510336"><stop offset="0" stop-color="#c8ff87"/><stop offset="1" stop-color="#abff87" stop-opacity="0"/></linearGradient><linearGradient id="c" gradientUnits="userSpaceOnUse" spreadMethod="reflect" x1="31.606251" x2="34.575108" y1="13.510336" y2="13.510336"><stop offset="0" stop-color="#fff"/><stop offset="1" stop-color="#790000" stop-opacity="0"/></linearGradient><radialGradient id="d" cx="8" cy="8.201889" gradientTransform="matrix(2.4327881 0 0 2.4240172 -3.821134 920.00488)" gradientUnits="userSpaceOnUse" r="56"><stop offset=".0765" stop-color="#f3c300"/><stop offset=".1887" stop-color="#f7d21f"/><stop offset=".3467" stop-color="#fde446"/><stop offset=".4294" stop-color="#ffeb55"/><stop offset=".6882" stop-color="#ffeb55"/><stop offset=".7281" stop-color="#fee951"/><stop offset=".7641" stop-color="#fde446"/><stop offset=".7987" stop-color="#fadb34"/><stop offset=".8322" stop-color="#f7cf1a"/><stop offset=".8588" stop-color="#f3c300"/><stop offset=".9208" stop-color="#fbd400"/><stop offset=".9706" stop-color="#fd0"/></radialGradient><linearGradient id="e" gradientUnits="userSpaceOnUse" x1="69.627274" x2="96.710617" y1="933.27747" y2="976.61078"><stop offset="0" stop-color="#fff" stop-opacity=".462094"/><stop offset=".5" stop-color="#fff"/><stop offset="1" stop-color="#fff" stop-opacity=".350181"/></linearGradient><filter id="f" color-interpolation-filters="sRGB" height="1.048087" width="1.047914" x="-.023957" y="-.024043"><feGaussianBlur stdDeviation="1.1727546"/></filter><filter id="g" color-interpolation-filters="sRGB" height="1.07213" width="1.07187" x="-.035935" y="-.036065"><feGaussianBlur stdDeviation="1.657823"/></filter><linearGradient id="h" gradientUnits="userSpaceOnUse" x1="70" x2="130" y1="98" y2="98"><stop offset="0" stop-color="#066704"/><stop offset="1" stop-color="#077d05" stop-opacity=".839216"/></linearGradient><radialGradient id="i" cx="108.95794" cy="91.491646" gradientTransform="matrix(1.0783631 -.16325698 .14968763 .98873334 -23.191389 17.327301)" gradientUnits="userSpaceOnUse" r="30" xlink:href="#j"/><linearGradient id="j"><stop offset="0" stop-color="#011701"/><stop offset=".80671918" stop-color="#145703"/><stop offset="1" stop-color="#2fa207" stop-opacity=".384314"/></linearGradient><radialGradient id="k" cx="92.257149" cy="104.91638" gradientTransform="matrix(1.0783631 -.16325698 .14968763 .98873334 -23.191389 17.327301)" gradientUnits="userSpaceOnUse" r="30" xlink:href="#j"/><linearGradient id="l"><stop offset="0" stop-color="#fff"/><stop offset="1" stop-color="#fff" stop-opacity="0"/></linearGradient><filter id="m" height="1.277481" width="1.279832" x="-.139916" y="-.138741"><feGaussianBlur stdDeviation=".28784801"/></filter><linearGradient id="n" gradientUnits="userSpaceOnUse" x1="304.88663" x2="345.62039" y1="385.86127" y2="384.62384"><stop offset="0" stop-color="#fff" stop-opacity=".683453"/><stop offset="1" stop-color="#fff" stop-opacity="0"/></linearGradient><radialGradient id="o" cx="96" cy="102" gradientUnits="userSpaceOnUse" r="26"><stop offset="0" stop-color="#7ae91e" stop-opacity=".996078"/><stop offset="1" stop-color="#62c916"/></radialGradient><linearGradient id="p" gradientUnits="userSpaceOnUse" x1="93.673332" x2="105.63081" xlink:href="#l" y1="57.081059" y2="114.86784"/><filter id="q" color-interpolation-filters="sRGB" height="1.048" width="1.048" x="-.024" y="-.024"><feGaussianBlur stdDeviation=".52"/></filter><g transform="matrix(.25 0 0 .25 0 -231.09054)"><path d="m10.76134 931.03388h110.55338v110.52542h-110.55338z" fill="#453500" filter="url(#g)" transform="matrix(.93196255 0 0 .93196255 4.45503 67.170662)"/><path d="m6.8689672 2.9363508 117.3047628-.0000002v117.2850194h-117.3047628z" filter="url(#f)" opacity=".77" transform="matrix(.85262441 0 0 .85262441 10.134893 933.85856)"/><path d="m16 936.36216h100v100.00004h-100z" fill="#e3ad00"/><path d="m16.855659 937.2502h98.288681v98.224h-98.288681z" fill="#fff"/><path d="m17.083333 937.63958 97.833317-.19796v97.84118h-97.833317z" fill="url(#d)"/><path d="m16 936.24936h99.68402v21.30556h-99.68402z" fill="url(#e)"/><g fill="#fff" fill-opacity=".756881"><path d="m62.383255 1016.6146v-2.4994z"/><path d="m102.37121 933.16372v-2.49935z"/></g></g><g transform="matrix(.25 0 0 .25 -1 -.5)"><path d="m96 68a4.0004 4.0004 0 0 0 -4 4v18h-18a4.0004 4.0004 0 0 0 -4 4v8a4.0004 4.0004 0 0 0 4 4h18v18a4.0004 4.0004 0 0 0 4 4h8a4.0004 4.0004 0 0 0 4-4v-18h18a4.0004 4.0004 0 0 0 4-4v-8a4.0004 4.0004 0 0 0 -4-4h-18v-18a4.0004 4.0004 0 0 0 -4-4z" fill="url(#h)"/><path d="m96 68a4.0004 4.0004 0 0 0 -4 4v18h-18a4.0004 4.0004 0 0 0 -4 4v8a4.0004 4.0004 0 0 0 4 4h18v18a4.0004 4.0004 0 0 0 4 4h8a4.0004 4.0004 0 0 0 4-4v-18h18a4.0004 4.0004 0 0 0 4-4v-8a4.0004 4.0004 0 0 0 -4-4h-18v-18a4.0004 4.0004 0 0 0 -4-4z" fill="url(#i)"/><path d="m96 68a4.0004 4.0004 0 0 0 -4 4v18h-18a4.0004 4.0004 0 0 0 -4 4v8a4.0004 4.0004 0 0 0 4 4h18v18a4.0004 4.0004 0 0 0 4 4h8a4.0004 4.0004 0 0 0 4-4v-18h18a4.0004 4.0004 0 0 0 4-4v-8a4.0004 4.0004 0 0 0 -4-4h-18v-18a4.0004 4.0004 0 0 0 -4-4z" fill="url(#k)"/><path d="m31.7 16 2.875-3.375c-1.051205-1.695758-3.935136-2.288018-5.9375-.3125l2.8125 3.375z" fill="url(#a)" fill-rule="evenodd" filter="url(#m)" opacity=".790262" transform="matrix(-.60073019 -.60073019 .59501648 -.59501648 106.15853 151.49848)"/><path d="m31.7 16 2.875-3.375c-1.051205-1.695758-3.935136-2.288018-5.9375-.3125l2.8125 3.375z" fill="url(#n)" fill-rule="evenodd" filter="url(#m)" opacity=".498127" transform="matrix(-.54559305 .54559305 -.55083218 -.55083218 129.81694 114.94021)"/><path d="m96 72v22h-22v8h22v22h8v-22h22v-8h-22v-22z" fill="url(#o)"/><path d="m96 72v21.224609.775391h-22v5.835938c5.252313.784812 12.103279 1.193282 17.28125 1.203122 12.42654-.0162 24.54521-2.29327 34.71875-6.523435v-.515625h-22v-22z" fill="url(#p)"/><path d="m96 72v22h-22v8h22v22h8v-22h22v-8h-22v-22z" style="fill:none;stroke:#eef4ca;stroke-width:.8;stroke-linecap:square;stroke-linejoin:round;stroke-opacity:.780392;filter:url(#q)"/><g fill-rule="evenodd"><path d="m31.7 16 2.875-3.375c-1.051205-1.695758-3.935136-2.288018-5.9375-.3125l2.8125 3.375z" fill="url(#a)" filter="url(#m)" opacity=".498127" transform="matrix(-.60249952 .60249952 .60828509 .60828509 83.418893 65.879107)"/><path d="m88.7 16 2.875-3.375c-1.051205-1.695758-3.935136-2.288018-5.9375-.3125l2.8125 3.375z" fill="url(#b)" filter="url(#m)" opacity=".790262" transform="matrix(-.55083218 -.55083218 .54559305 -.54559305 113.52649 159.24703)"/><path d="m31.7 16 2.875-3.375c-1.051205-1.695758-3.935136-2.288018-5.9375-.3125l2.8125 3.375z" fill="url(#c)" filter="url(#m)" opacity=".790262" transform="matrix(-.50093417 -.50093417 -.49616964 .49616964 149.45278 101.72037)"/><path d="m88.7 16 2.875-3.375c-1.051205-1.695758-3.935136-2.288018-5.9375-.3125l2.8125 3.375z" fill="url(#b)" filter="url(#m)" opacity=".790262" transform="matrix(-.51428706 -.51428706 -.50939554 .50939554 157.72648 109.73028)"/><path d="m88.7 16 2.875-3.375c-1.051205-1.695758-3.935136-2.288018-5.9375-.3125l2.8125 3.375z" fill="url(#b)" filter="url(#m)" opacity=".790262" transform="matrix(.51428706 -.51428706 .50939554 .50939554 42.798309 109.73028)"/><path d="m31.7 16 2.875-3.375c-1.051205-1.695758-3.935136-2.288018-5.9375-.3125l2.8125 3.375z" fill="url(#c)" filter="url(#m)" opacity=".790262" transform="matrix(-.50093417 .50093417 -.49616964 -.49616964 149.45278 94.179741)"/></g></g></svg>

<?xml version="1.0" encoding="UTF-8" standalone="no"?>
<svg
   xmlns:dc="http://purl.org/dc/elements/1.1/"
   xmlns:cc="http://creativecommons.org/ns#"
   xmlns:rdf="http://www.w3.org/1999/02/22-rdf-syntax-ns#"
   xmlns:svg="http://www.w3.org/2000/svg"
   xmlns="http://www.w3.org/2000/svg"
   xmlns:xlink="http://www.w3.org/1999/xlink"
   xmlns:sodipodi="http://sodipodi.sourceforge.net/DTD/sodipodi-0.dtd"
   xmlns:inkscape="http://www.inkscape.org/namespaces/inkscape"
   height="32"
   viewBox="0 0 32 32"
   width="32"
   version="1.1"
   id="svg139"
   sodipodi:docname="insertannotation.svg"
   inkscape:version="0.92.4 (unknown)"
   inkscape:export-filename="/home/rizmut/Dokumen/Rizmut/Github/libreoffice-style-karasa-jaga/build/next/cmd/32/insertannotation.png"
   inkscape:export-xdpi="96"
   inkscape:export-ydpi="96">
  <metadata
     id="metadata145">
    <rdf:RDF>
      <cc:Work
         rdf:about="">
        <dc:format>image/svg+xml</dc:format>
        <dc:type
           rdf:resource="http://purl.org/dc/dcmitype/StillImage" />
        <dc:title></dc:title>
      </cc:Work>
    </rdf:RDF>
  </metadata>
  <defs
     id="defs143">
    <linearGradient
       inkscape:collect="always"
       xlink:href="#j"
       id="linearGradient4917"
       gradientUnits="userSpaceOnUse"
       gradientTransform="scale(1.0975951,0.9110828)"
       x1="26.091133"
       y1="14.856744"
       x2="31.500689"
       y2="14.856744" />
    <linearGradient
       inkscape:collect="always"
       xlink:href="#p"
       id="linearGradient4919"
       gradientUnits="userSpaceOnUse"
       x1="88.606247"
       y1="13.510336"
       x2="91.575104"
       y2="13.510336"
       spreadMethod="reflect" />
    <linearGradient
       inkscape:collect="always"
       xlink:href="#q"
       id="linearGradient4921"
       gradientUnits="userSpaceOnUse"
       x1="31.606251"
       y1="13.510336"
       x2="34.575108"
       y2="13.510336"
       spreadMethod="reflect" />
    <linearGradient
       inkscape:collect="always"
       xlink:href="#p"
       id="linearGradient4923"
       gradientUnits="userSpaceOnUse"
       x1="88.606247"
       y1="13.510336"
       x2="91.575104"
       y2="13.510336"
       spreadMethod="reflect" />
    <linearGradient
       inkscape:collect="always"
       xlink:href="#p"
       id="linearGradient4925"
       gradientUnits="userSpaceOnUse"
       x1="88.606247"
       y1="13.510336"
       x2="91.575104"
       y2="13.510336"
       spreadMethod="reflect" />
    <linearGradient
       inkscape:collect="always"
       xlink:href="#q"
       id="linearGradient4927"
       gradientUnits="userSpaceOnUse"
       x1="31.606251"
       y1="13.510336"
       x2="34.575108"
       y2="13.510336"
       spreadMethod="reflect" />
  </defs>
  <sodipodi:namedview
     pagecolor="#ffffff"
     bordercolor="#666666"
     borderopacity="1"
     objecttolerance="10"
     gridtolerance="10"
     guidetolerance="10"
     inkscape:pageopacity="0"
     inkscape:pageshadow="2"
     inkscape:window-width="640"
     inkscape:window-height="480"
     id="namedview141"
     showgrid="true"
     inkscape:zoom="7.4375"
     inkscape:cx="14.769166"
     inkscape:cy="19.969326"
     inkscape:current-layer="svg139">
    <inkscape:grid
       type="xygrid"
       id="grid4884" />
  </sodipodi:namedview>
  <radialGradient
     id="a"
     cx="8"
     cy="8.201889"
     gradientTransform="matrix(2.4327881,0,0,2.4240172,-3.821134,920.00488)"
     gradientUnits="userSpaceOnUse"
     r="56">
    <stop
       offset=".0765"
       stop-color="#f3c300"
       id="stop2" />
    <stop
       offset=".1887"
       stop-color="#f7d21f"
       id="stop4" />
    <stop
       offset=".3467"
       stop-color="#fde446"
       id="stop6" />
    <stop
       offset=".4294"
       stop-color="#ffeb55"
       id="stop8" />
    <stop
       offset=".6882"
       stop-color="#ffeb55"
       id="stop10" />
    <stop
       offset=".7281"
       stop-color="#fee951"
       id="stop12" />
    <stop
       offset=".7641"
       stop-color="#fde446"
       id="stop14" />
    <stop
       offset=".7987"
       stop-color="#fadb34"
       id="stop16" />
    <stop
       offset=".8322"
       stop-color="#f7cf1a"
       id="stop18" />
    <stop
       offset=".8588"
       stop-color="#f3c300"
       id="stop20" />
    <stop
       offset=".9208"
       stop-color="#fbd400"
       id="stop22" />
    <stop
       offset=".9706"
       stop-color="#fd0"
       id="stop24" />
  </radialGradient>
  <linearGradient
     id="b"
     gradientUnits="userSpaceOnUse"
     x1="69.627274"
     x2="96.710617"
     y1="933.27747"
     y2="976.61078">
    <stop
       offset="0"
       stop-color="#fff"
       stop-opacity=".462094"
       id="stop27" />
    <stop
       offset=".5"
       stop-color="#fff"
       id="stop29" />
    <stop
       offset="1"
       stop-color="#fff"
       stop-opacity=".350181"
       id="stop31" />
  </linearGradient>
  <filter
     id="c"
     height="1.048087"
     width="1.047914"
     x="-0.023956999"
     y="-0.024042999"
     style="color-interpolation-filters:sRGB">
    <feGaussianBlur
       stdDeviation="1.1727546"
       id="feGaussianBlur34" />
  </filter>
  <filter
     id="d"
     height="1.07213"
     width="1.07187"
     x="-0.035935"
     y="-0.036065001"
     style="color-interpolation-filters:sRGB">
    <feGaussianBlur
       stdDeviation="1.657823"
       id="feGaussianBlur37" />
  </filter>
  <linearGradient
     id="e"
     gradientUnits="userSpaceOnUse"
     x1="70"
     x2="130"
     y1="98"
     y2="98">
    <stop
       offset="0"
       stop-color="#066704"
       id="stop40" />
    <stop
       offset="1"
       stop-color="#077d05"
       stop-opacity=".839216"
       id="stop42" />
  </linearGradient>
  <radialGradient
     id="f"
     cx="108.95794"
     cy="91.491646"
     gradientTransform="matrix(1.0783631,-0.16325698,0.14968763,0.98873334,-23.191389,17.327301)"
     gradientUnits="userSpaceOnUse"
     r="30"
     xlink:href="#g" />
  <linearGradient
     id="g">
    <stop
       offset="0"
       stop-color="#011701"
       id="stop46" />
    <stop
       offset=".80671918"
       stop-color="#145703"
       id="stop48" />
    <stop
       offset="1"
       stop-color="#2fa207"
       stop-opacity=".384314"
       id="stop50" />
  </linearGradient>
  <radialGradient
     id="h"
     cx="92.257149"
     cy="104.91638"
     gradientTransform="matrix(1.0783631,-0.16325698,0.14968763,0.98873334,-23.191389,17.327301)"
     gradientUnits="userSpaceOnUse"
     r="30"
     xlink:href="#g" />
  <linearGradient
     id="i"
     gradientTransform="scale(1.0975951,0.9110828)"
     gradientUnits="userSpaceOnUse"
     x1="26.091133"
     x2="31.500689"
     xlink:href="#j"
     y1="14.856744"
     y2="14.856744" />
  <linearGradient
     id="j">
    <stop
       offset="0"
       stop-color="#fff"
       id="stop55" />
    <stop
       offset="1"
       stop-color="#fff"
       stop-opacity="0"
       id="stop57" />
  </linearGradient>
  <filter
     id="k"
     height="1.277481"
     width="1.279832"
     x="-0.139916"
     y="-0.138741">
    <feGaussianBlur
       stdDeviation=".28784801"
       id="feGaussianBlur60" />
  </filter>
  <linearGradient
     id="l"
     gradientUnits="userSpaceOnUse"
     x1="304.88663"
     x2="345.62039"
     y1="385.86127"
     y2="384.62384">
    <stop
       offset="0"
       stop-color="#fff"
       stop-opacity=".683453"
       id="stop63" />
    <stop
       offset="1"
       stop-color="#fff"
       stop-opacity="0"
       id="stop65" />
  </linearGradient>
  <radialGradient
     id="m"
     cx="96"
     cy="102"
     gradientUnits="userSpaceOnUse"
     r="26">
    <stop
       offset="0"
       stop-color="#7ae91e"
       stop-opacity=".996078"
       id="stop68" />
    <stop
       offset="1"
       stop-color="#62c916"
       id="stop70" />
  </radialGradient>
  <linearGradient
     id="n"
     gradientUnits="userSpaceOnUse"
     x1="93.673332"
     x2="105.63081"
     xlink:href="#j"
     y1="57.081059"
     y2="114.86784" />
  <filter
     id="o"
     height="1.048"
     width="1.048"
     x="-0.024"
     y="-0.024"
     style="color-interpolation-filters:sRGB">
    <feGaussianBlur
       stdDeviation=".52"
       id="feGaussianBlur74" />
  </filter>
  <linearGradient
     id="p"
     gradientUnits="userSpaceOnUse"
     spreadMethod="reflect"
     x1="88.606247"
     x2="91.575104"
     y1="13.510336"
     y2="13.510336">
    <stop
       offset="0"
       stop-color="#c8ff87"
       id="stop77" />
    <stop
       offset="1"
       stop-color="#abff87"
       stop-opacity="0"
       id="stop79" />
  </linearGradient>
  <linearGradient
     id="q"
     gradientUnits="userSpaceOnUse"
     spreadMethod="reflect"
     x1="31.606251"
     x2="34.575108"
     y1="13.510336"
     y2="13.510336">
    <stop
       offset="0"
       stop-color="#fff"
       id="stop82" />
    <stop
       offset="1"
       stop-color="#790000"
       stop-opacity="0"
       id="stop84" />
  </linearGradient>
  <g
     id="g4915"
     transform="scale(0.25)">
    <g
       id="g105"
       transform="translate(0,-924.36216)">
      <path
         id="path87"
         transform="matrix(0.93196255,0,0,0.93196255,4.45503,67.170662)"
         d="M 10.76134,931.03388 H 121.31472 V 1041.5593 H 10.76134 Z"
         inkscape:connector-curvature="0"
         style="fill:#453500;filter:url(#d)" />
      <path
         id="path89"
         transform="matrix(0.85262441,0,0,0.85262441,10.134893,933.85856)"
         d="m 6.8689672,2.9363508 117.3047628,-2e-7 V 120.22137 H 6.8689672 Z"
         inkscape:connector-curvature="0"
         style="opacity:0.76999996;filter:url(#c)" />
      <path
         id="path91"
         d="M 16,936.36216 H 116 V 1036.3622 H 16 Z"
         inkscape:connector-curvature="0"
         style="fill:#e3ad00" />
      <path
         id="path93"
         d="m 16.855659,937.2502 h 98.288681 v 98.224 H 16.855659 Z"
         inkscape:connector-curvature="0"
         style="fill:#ffffff" />
      <path
         id="path95"
         d="m 17.083333,937.63958 97.833317,-0.19796 v 97.84118 H 17.083333 Z"
         style="fill:url(#a)"
         inkscape:connector-curvature="0" />
      <path
         id="path97"
         d="m 16,936.24936 h 99.68402 v 21.30556 H 16 Z"
         style="fill:url(#b)"
         inkscape:connector-curvature="0" />
      <g
         id="g103"
         style="fill:#ffffff;fill-opacity:0.756881">
        <path
           id="path99"
           d="m 62.383255,1016.6146 v -2.4994 z"
           inkscape:connector-curvature="0" />
        <path
           id="path101"
           d="m 102.37121,933.16372 v -2.49935 z"
           inkscape:connector-curvature="0" />
      </g>
    </g>
    <g
       id="g137"
       transform="translate(-4,-2)">
      <path
         id="path107"
         d="m 96,68 a 4.0004,4.0004 0 0 0 -4,4 V 90 H 74 a 4.0004,4.0004 0 0 0 -4,4 v 8 a 4.0004,4.0004 0 0 0 4,4 h 18 v 18 a 4.0004,4.0004 0 0 0 4,4 h 8 a 4.0004,4.0004 0 0 0 4,-4 v -18 h 18 a 4.0004,4.0004 0 0 0 4,-4 v -8 a 4.0004,4.0004 0 0 0 -4,-4 H 108 V 72 a 4.0004,4.0004 0 0 0 -4,-4 z"
         style="fill:url(#e)"
         inkscape:connector-curvature="0" />
      <path
         id="path109"
         d="m 96,68 a 4.0004,4.0004 0 0 0 -4,4 V 90 H 74 a 4.0004,4.0004 0 0 0 -4,4 v 8 a 4.0004,4.0004 0 0 0 4,4 h 18 v 18 a 4.0004,4.0004 0 0 0 4,4 h 8 a 4.0004,4.0004 0 0 0 4,-4 v -18 h 18 a 4.0004,4.0004 0 0 0 4,-4 v -8 a 4.0004,4.0004 0 0 0 -4,-4 H 108 V 72 a 4.0004,4.0004 0 0 0 -4,-4 z"
         style="fill:url(#f)"
         inkscape:connector-curvature="0" />
      <path
         id="path111"
         d="m 96,68 a 4.0004,4.0004 0 0 0 -4,4 V 90 H 74 a 4.0004,4.0004 0 0 0 -4,4 v 8 a 4.0004,4.0004 0 0 0 4,4 h 18 v 18 a 4.0004,4.0004 0 0 0 4,4 h 8 a 4.0004,4.0004 0 0 0 4,-4 v -18 h 18 a 4.0004,4.0004 0 0 0 4,-4 v -8 a 4.0004,4.0004 0 0 0 -4,-4 H 108 V 72 a 4.0004,4.0004 0 0 0 -4,-4 z"
         style="fill:url(#h)"
         inkscape:connector-curvature="0" />
      <path
         id="path113"
         transform="matrix(-0.60073019,-0.60073019,0.59501648,-0.59501648,106.15853,151.49848)"
         d="m 31.7,16 2.875,-3.375 c -1.051205,-1.695758 -3.935136,-2.288018 -5.9375,-0.3125 l 2.8125,3.375 z"
         style="opacity:0.79026196;fill:url(#linearGradient4917);fill-rule:evenodd;filter:url(#k)"
         inkscape:connector-curvature="0" />
      <path
         id="path115"
         transform="matrix(-0.54559305,0.54559305,-0.55083218,-0.55083218,129.81694,114.94021)"
         d="m 31.7,16 2.875,-3.375 c -1.051205,-1.695758 -3.935136,-2.288018 -5.9375,-0.3125 l 2.8125,3.375 z"
         style="opacity:0.498127;fill:url(#l);fill-rule:evenodd;filter:url(#k)"
         inkscape:connector-curvature="0" />
      <path
         id="path117"
         d="M 96,72 V 94 H 74 v 8 h 22 v 22 h 8 v -22 h 22 V 94 H 104 V 72 Z"
         style="fill:url(#m)"
         inkscape:connector-curvature="0" />
      <path
         id="path119"
         d="M 96,72 V 93.224609 94 H 74 v 5.835938 c 5.252313,0.784812 12.103279,1.193282 17.28125,1.203122 12.42654,-0.0162 24.54521,-2.29327 34.71875,-6.523435 V 94 H 104 V 72 Z"
         style="fill:url(#n)"
         inkscape:connector-curvature="0" />
      <path
         id="path121"
         style="fill:none;stroke:#eef4ca;stroke-width:0.80000001;stroke-linecap:square;stroke-linejoin:round;stroke-opacity:0.78039198;filter:url(#o)"
         d="M 96,72 V 94 H 74 v 8 h 22 v 22 h 8 v -22 h 22 V 94 H 104 V 72 Z"
         inkscape:connector-curvature="0" />
      <g
         id="g135"
         style="fill-rule:evenodd">
        <path
           id="path123"
           transform="matrix(-0.60249952,0.60249952,0.60828509,0.60828509,83.418893,65.879107)"
           d="m 31.7,16 2.875,-3.375 c -1.051205,-1.695758 -3.935136,-2.288018 -5.9375,-0.3125 l 2.8125,3.375 z"
           style="opacity:0.498127;fill:url(#i);filter:url(#k)"
           inkscape:connector-curvature="0" />
        <path
           id="path125"
           transform="matrix(-0.55083218,-0.55083218,0.54559305,-0.54559305,113.52649,159.24703)"
           d="m 88.7,16 2.875,-3.375 c -1.051205,-1.695758 -3.935136,-2.288018 -5.9375,-0.3125 l 2.8125,3.375 z"
           style="opacity:0.79026196;fill:url(#linearGradient4919);filter:url(#k)"
           inkscape:connector-curvature="0" />
        <path
           id="path127"
           transform="matrix(-0.50093417,-0.50093417,-0.49616964,0.49616964,149.45278,101.72037)"
           d="m 31.7,16 2.875,-3.375 c -1.051205,-1.695758 -3.935136,-2.288018 -5.9375,-0.3125 l 2.8125,3.375 z"
           style="opacity:0.79026196;fill:url(#linearGradient4921);filter:url(#k)"
           inkscape:connector-curvature="0" />
        <path
           id="path129"
           transform="matrix(-0.51428706,-0.51428706,-0.50939554,0.50939554,157.72648,109.73028)"
           d="m 88.7,16 2.875,-3.375 c -1.051205,-1.695758 -3.935136,-2.288018 -5.9375,-0.3125 l 2.8125,3.375 z"
           style="opacity:0.79026196;fill:url(#linearGradient4923);filter:url(#k)"
           inkscape:connector-curvature="0" />
        <path
           id="path131"
           transform="matrix(0.51428706,-0.51428706,0.50939554,0.50939554,42.798309,109.73028)"
           d="m 88.7,16 2.875,-3.375 c -1.051205,-1.695758 -3.935136,-2.288018 -5.9375,-0.3125 l 2.8125,3.375 z"
           style="opacity:0.79026196;fill:url(#linearGradient4925);filter:url(#k)"
           inkscape:connector-curvature="0" />
        <path
           id="path133"
           transform="matrix(-0.50093417,0.50093417,-0.49616964,-0.49616964,149.45278,94.179741)"
           d="m 31.7,16 2.875,-3.375 c -1.051205,-1.695758 -3.935136,-2.288018 -5.9375,-0.3125 l 2.8125,3.375 z"
           style="opacity:0.79026196;fill:url(#linearGradient4927);filter:url(#k)"
           inkscape:connector-curvature="0" />
      </g>
    </g>
  </g>
</svg>
